!!!OTL: Exultet
!!!SMS: Bv 33: Benevento, Biblioteca Capitolare, ms 33
!!!EFL: 26/28
**kern	**text
*	*
*staff8	*staff8
!Bv 33	!Bv 33
*clefGv2	*
*k[b-]	*
=1--	=1--
4F	E-
.	.
(8G	xul
8A)	.
8G	-tet
8G	iam
4F	an-
.	.
=2-	=2-
(8F	ge
8G)	.
8G	li
8G	-ca
(8G	turyy-
8A)	.
(8A	-ba
8G)	.
=3-	=3-
4F	ce-
.	.
(8G	lo
8A	.
4G)	.
.	.
4F	-ryyum.
.	.
=4-	=4-
4F	e-
(4G	xul
4A)	.
4G	-tent
=5-	=5-
4G	di-
(8G	vi
4A)	.
.	.
(8A	-na
4G)	.
=6-	=6-
4F	my-
(8G	ste
8A)	.
(8G	ryyi
8F)	.
4F	-a.
=7-	=7-
8F	et
8F	pryyo
8G	tan-
8F	-ti
(16F	ryye-
16G)	.
8G	-gis
8F	vic-
(16F	to
16G)	.
=8-	=8-
8G	ryyi
8G	-am.
8A	tu-
8G	-ba
8A	in-
.	.
8F	to
.	.
(16G	-net
16A	.
16G	.
16A)	.
=9-	=9-
16G	.
16F	.
(16F	sa-
16G	.
8A)	.
.	.
(8G	lu
.	.
8A	.
.	.
8G)	.
.	.
8F	ta
8F	-ryyis.
=10-	=10-
(16G	Ga-
16A)	.
8G	u
8G	de
8G	-at
8G	se
.	.
8G	tan-
8F	-tis
(16F	tel-
16G)	.
=11-	=11-
8G	-lus.
.	.
8G	In-
8G	ryya
8G	di
(8G	a
8A)	.
(8A	-ta
8G)	.
=12-	=12-
4F	ful-
.	.
(8G	go
8A)	.
(8G	ryyi
8F)	.
4F	-bus.
.	.
=13-	=13-
8F	et
8F	e-
8G	teryy
8F	-ni
(8F	ryye-
8G)	.
4G	-gis
=14-	=14-
4G	splen-
.	.
(8G	do
4A)	.
.	.
(8A	-ryye
4G)	.
.	.
=15-	=15-
4F	lu-
.	.
(8G	stryya
8A	.
4G)	.
.	.
4F	-ta.
=16-	=16-
8F	to-
8A	ti
8G	-us
(8F	oryy-
8G)	.
8G	-bis
8F	se
(16F	sen-
16G)	.
=17-	=17-
8G	ti
8G	-at.
8A	a-
.	.
8F	mi
.	.
(8G	sis
.	.
8A	.
.	.
8G	.
.	.
8A)	.
.	.
=18-	=18-
8G	.
.	.
8F	.
.	.
8A	-se
.	.
(16G	ca-
16A	.
8G)	.
.	.
8F	li
8F	gi
8F	-nem.
=19-	=19-
(16G	Le-
16A)	.
8G	te
.	.
8G	-turyy
8G	et
8G	ma-
.	.
8G	-teryy
.	.
8F	ec-
(16F	cle
16G)	.
=20-	=20-
8G	si
.	.
8G	-a
8G	tan-
8F	-ti
(16F	lu-
16G)	.
8G	mi
.	.
8G	-nis
8G	a-
=21-	=21-
8G	doryy
.	.
(8G	na
.	.
8A)	.
.	.
(8A	-ta
.	.
8G)	.
.	.
8F	ful-
.	.
(16G	go
16A	.
16G)	.
16F	-ryye
=22-	=22-
8F	et
.	.
8A	mag-
.	.
8G	-nis
.	.
8G	po-
8G	pu
8G	lo
8F	-ryyum
(16F	vo-
16G)	.
=23-	=23-
8G	ci
.	.
8G	-bus
8F	hec
(8G	au-
8A	.
8G	.
.	.
8A)	.
.	.
16G	.
16F	.
=24-	=24-
(16F	-la
16G	.
8A)	.
.	.
(16G	ryye-
16A	.
8G)	.
.	.
4F	sul
.	.
.	.
.	.
4F	-tet.
.	.
.	.
=25-	=25-
(8G	Qua-
8A)	.
8G	pryyop
8G	-teryy
8G	a-
8G	stan
.	.
8G	ti
8F	-bus
=26-	=26-
(8F	vo-
.	.
8G)	.
4G	-bis
.	.
(8G	fryya-
8A)	.
(8A	-tryyes
8G)	.
=27-	=27-
4F	ca-
(8G	ryyis
8A)	.
(8G	si
8F)	.
4F	-mi.
=28-	=28-
4F	ad
4A	tam
8G	mi-
8G	-ryyam
8G	sanc-
8F	-ti
=29-	=29-
(8F	hu-
8G)	.
8G	-ius
.	.
8G	lu-
.	.
8G	mi
.	.
(8G	-nis
.	.
8A)	.
.	.
(8A	cla-
.	.
=30-	=30-
8G)	.
.	.
8F	ryyi
.	.
(8G	ta
8A	.
.	.
4G)	.
.	.
.	.
4F	-tem.
.	.
=31-	=31-
8A	u-
.	.
8G	-na
.	.
8G	me-
.	.
8F	-cum
.	.
(16F	que-
16G)	.
8G	-so
.	.
16G	de-
16G	-i
8G	om-
.	.
=32-	=32-
16G	ni
16F	po
(16F	ten
16G)	.
8G	-tis
.	.
8G	mi-
.	.
8G	se
.	.
8G	ryyi
8G	coryy
.	.
8G	di
.	.
=33-	=33-
(16G	-am
16A	.
16G	.
16A)	.
16G	.
16F	.
(16F	in-
16G	.
16A)	.
(16G	vo
16A	.
16G)	.
8F	ca
8F	-te.
=34-	=34-
(16G	Ut
16A)	.
8G	qui
.	.
8G	me
.	.
8G	non
.	.
8G	me-
.	.
8F	-is
.	.
(16F	me-
16G)	.
16G	ryyi
16G	-tis
=35-	=35-
8G	in
.	.
8G	le-
.	.
8G	vi
.	.
8G	ta
.	.
8F	-ryyum
.	.
(16F	nu-
16G)	.
16G	me
16G	-ryyo.
8G	dig-
.	.
=36-	=36-
8G	na
.	.
8G	-tus
.	.
(16G	est
16A)	.
(16A	ag-
16G)	.
8F	gryye
.	.
(16G	ga
16A	.
8G)	.
.	.
8F	-ryye.
.	.
=37-	=37-
4A	lu-
.	.
4G	mi
.	.
4F	-nis
.	.
(8F	su-
8G)	.
=38-	=38-
4G	-i
4G	gryya-
.	.
(8G	ti
8A)	.
(8A	-am
8G)	.
=39-	=39-
4F	in-
.	.
(8G	fun
8A	.
4G)	.
.	.
4F	-dens.
.	.
=40-	=40-
4A	ce-
4G	ryye
.	.
4F	-i
.	.
(8F	hu-
8G)	.
=41-	=41-
8G	-ius
.	.
8G	la-
.	.
8G	u
8G	-dem
.	.
8F	im-
.	.
(8G	ple
.	.
8A	.
.	.
16G	.
16A)	.
=42-	=42-
16G	.
16F	.
8A	-ryye
.	.
(8G	pryye-
.	.
8A	.
.	.
8G)	.
.	.
8F	ci
.	.
8F	pi
.	.
8F	-at.
.	.
=43-	=43-
(8G	Peryy
8A)	.
8G	do-
8G	mi
8F	-num
(8F	no-
.	.
8G)	.
8G	-stryyum
=44-	=44-
4G	ihe-
.	.
4F	-sum
.	.
(8F	chryyi-
8G)	.
4G	-stum
.	.
=45-	=45-
8G	fi-
8G	li
4F	-um
.	.
(8F	su-
8G)	.
4G	-um.
.	.
=46-	=46-
8G	vi-
8A	ven
8F	-tem
(8F	se-
.	.
8G)	.
8G	-cum
8G	at-
.	.
8G	-que
=47-	=47-
8F	ryyeg-
.	.
(8F	nan
.	.
8G)	.
.	.
8G	-tem
.	.
8G	in
.	.
8G	u-
.	.
8F	ni
.	.
(16F	ta
16G)	.
=48-	=48-
8G	-te
.	.
8G	spi-
.	.
8G	ryyi
.	.
(16G	-tus
16A)	.
(16A	sanc-
16G)	.
8F	-ti
.	.
(16G	de-
16A	.
16G)	.
16F	-um.
=49-	=49-
8F	peryy
8A	om-
8G	ni
8F	-a
4G	se-
.	.
4F	cu
.	.
.	.
.	.
=50-	=50-
(8G	-la
.	.
8A	.
.	.
8G	.
8A)	.
.	.
8G	.
8F	.
4A	se-
.	.
.	.
=51-	=51-
(8F	cu
8A	.
8G)	.
8G	lo
8G	-ryyum.
8G	A-
4G	-men.
.	.
=52-	=52-
8F	Do-
(8G	mi
8A)	.
4B-	-nus
.	.
(8G	vo-
.	.
8A)	.
.	.
8G	.
.	.
=53-	=53-
4F	.
.	.
(8G	bis
8A	.
4G)	.
.	.
.	.
4F	-cum.
.	.
.	.
.	.
=54-	=54-
8ryy	Et
8ryy	cum
8ryy	spi-
8ryy	ryyi
8ryy	-tu
8ryy	tu-
8ryy	-o.
8ryy	.
=55-	=55-
(8F	Suryy-
.	.
8G	.
.	.
8A	.
.	.
8B-)	.
.	.
8B-	-sum
.	.
(8A	.
8G	.
8A)	.
.	.
=56-	=56-
8G	.
.	.
8F	.
.	.
(8F	coryy-
.	.
8G	.
8A)	.
.	.
.	.
(8G	-da
.	.
4F)	.
.	.
.	.
.	.
=57-	=57-
8ryy	Ha-
8ryy	be
8ryy	-mus
8ryy	ad
8ryy	do-
8ryy	mi
8ryy	-num.
8ryy	.
=58-	=58-
(16F	Gryya-
16G	.
8A)	.
.	.
(16G	ti
16F)	.
(8G	-as
.	.
8A)	.
.	.
4B-	aga-
.	.
.	.
.	.
(16G	-mus
16A)	.
=59-	=59-
(16F	do-
16G	.
8A)	.
.	.
.	.
8G	mi
.	.
.	.
.	.
(16F	-no
.	.
16E)	.
(16E	de-
8F)	.
.	.
8G	-o
.	.
(16F	no-
16G)	.
16F	-stryyo.
.	.
=60-	=60-
8ryy	Dig-
.	.
8ryy	-num
.	.
8ryy	et
.	.
8ryy	iu-
.	.
4ryy	-stum
.	.
.	.
.	.
4ryy	est.
.	.
.	.
.	.
=61-	=61-
(16F	Ve-
16G	.
8A)	.
.	.
(16G	-ryye
16A	.
16G)	.
16F	.
8G	qui-
.	.
8A	-a
8B-	dig-
(16G	-num
16A)	.
=62-	=62-
8A	et
8B-	iu-
.	.
(16G	-stum
16A)	.
8A	est.
.	.
8F	peryy
.	.
8A	chryyi-
.	.
8G	-stum
.	.
(16G	do-
16A	.
=63-	=63-
16G	.
16A)	.
16G	.
16F	.
8A	mi
(8G	-num
.	.
8A	.
8G)	.
8F	no-
8F	-stryyum.
=64-	=64-
(16G	Qui
16A)	.
8G	nos
8G	ad
8G	noc-
16F	-te
(16F	i-
16G)	.
16G	-stam.
8G	non
16G	te-
16F	ne
=65-	=65-
(16F	bryya
16G)	.
8G	-ryyum.
.	.
8G	sed
8G	lu-
8G	mi
8F	-nis
(16F	ma-
16G)	.
8G	-tryyem.
.	.
=66-	=66-
8G	peryy-
8G	du
(16G	ce
16A)	.
(16A	-ryye
16G)	.
8F	dig-
.	.
(16G	na
16A)	.
(16G	-tus
16F)	.
8F	est.
=67-	=67-
16G	in
16G	qua
16G	e-
8G	xoryy
.	.
8G	-ta
.	.
8G	est
.	.
8F	ab
.	.
(16F	in-
16G)	.
16G	fe
8G	-ryyis.
.	.
=68-	=68-
8G	in
.	.
16G	e-
8G	teryy
.	.
8F	-na
.	.
(16F	di-
16G)	.
8G	-e
.	.
16A	ryye-
8F	suryy
.	.
16A	ryyec
16G	ti
=69-	=69-
(16G	-o
16A	.
16G	.
16A)	.
16G	.
16F	.
8A	moryy-
(16G	tu
16A	.
8G)	.
8F	o
8F	-ryyum.
=70-	=70-
(16G	So-
16A)	.
8G	lu
.	.
8G	-tis
8G	quip-
8F	-pe
(16F	ne-
16G)	.
8G	xi
8G	-bus.
=71-	=71-
8G	et
8G	cal-
8G	ca
8G	-to
(8G	moryy-
8A)	.
(8A	-tis
8G)	.
=72-	=72-
4F	e-
.	.
4A	cu
.	.
(8G	le
8F)	.
4F	-o.
=73-	=73-
8F	ryye-
8F	suryy
8A	ryye
8G	-xit
8F	a
8G	moryy-
.	.
8G	tu
8G	-is.
=74-	=74-
8F	qui
(16F	fu-
16G)	.
8G	e
8G	-ryyat
8A	in-
8G	-teryy
(16G	moryy-
16A	.
16G	.
16A)	.
=75-	=75-
8G	.
8F	.
8A	tu
(8G	-os
8A	.
8G)	.
8F	li-
8F	-beryy.
=76-	=76-
(16G	Un-
16A)	.
8G	-de
.	.
8F	nox
.	.
(8F	ip-
8G)	.
8G	-sa.
8G	si-
8G	de
.	.
=77-	=77-
8G	ryye
4G	-o
.	.
4G	pryyo
.	.
8G	ec-
8G	cle
8G	sia
=78-	=78-
4G	-ryyum
.	.
4F	oryy-
.	.
(8F	na
8G)	.
4G	-tu.
.	.
=79-	=79-
8G	ce-
8G	ryye
8G	o
8G	-ryyum
8F	splen-
(8F	do
8G)	.
8G	-ryye
=80-	=80-
8G	tam-
.	.
8F	-quam
.	.
(8F	di-
.	.
8G)	.
.	.
8G	-es
.	.
8G	il-
.	.
8G	lu
.	.
8G	mi
.	.
=81-	=81-
(8G	na
.	.
8A)	.
.	.
(8A	-ta
.	.
8G)	.
.	.
8F	col-
.	.
(16G	lu
16A	.
8G)	.
.	.
8F	-cet.
.	.
=82-	=82-
8F	qui-
8F	-a
8F	in
8A	e-
8G	-ius
8G	ma-
8F	tu
8G	ti
.	.
=83-	=83-
8G	-no
8G	ryye-
8G	suryy
.	.
8G	gen
.	.
8F	-te
(16F	chryyi-
16G)	.
8G	-sto.
.	.
16G	moryys
16G	oc-
=84-	=84-
8G	ci
.	.
8G	-dit
.	.
8G	ryye-
.	.
8F	demp
(8F	to
8G)	.
4G	-ryyum.
.	.
=85-	=85-
4A	et
4F	e-
4A	meryy
4G	-sit
.	.
=86-	=86-
(8G	vi-
8A	.
8G	.
8A)	.
8G	.
8F	.
4A	-ta
.	.
=87-	=87-
(8G	cryye-
8A	.
8G)	.
8F	den
4F	ti
.	.
4F	-um.
.	.
=88-	=88-
(16F	Ve-
16A)	.
8G	-ryye
8G	tu
8G	pryye-
8G	ti
8G	o
8G	-sus
8F	es
=89-	=89-
4G	o-
.	.
8G	pi
8G	-fex.
8G	foryy-
8G	ma
.	.
4G	-toryy
.	.
.	.
.	.
=90-	=90-
4F	es
.	.
4G	om-
.	.
4G	ni
.	.
4G	-um.
.	.
=91-	=91-
4G	cu-
.	.
.	.
.	.
.	.
.	.
.	.
4F	-i
.	.
.	.
.	.
4G	qua-
.	.
.	.
.	.
4ryy	.
.	.
.	.
.	.
=92-	=92-
4G	li
.	.
.	.
.	.
4G	-tas
.	.
.	.
.	.
8G	in
.	.
8F	a-
.	.
4G	gen
.	.
.	.
.	.
=93-	=93-
8G	-di
.	.
.	.
8G	non
.	.
.	.
.	.
(16G	fu-
.	.
16A)	.
.	.
(16A	-it
.	.
16G)	.
.	.
8F	of-
.	.
.	.
.	.
(16G	fi
.	.
16A)	.
.	.
(16G	ci
.	.
16F)	.
.	.
8F	-o.
.	.
.	.
.	.
=94-	=94-
4F	sed
.	.
.	.
.	.
4A	in
.	.
.	.
.	.
4G	seryy-
.	.
.	.
.	.
(8G	mo
.	.
8A	.
.	.
=95-	=95-
8G	.
8A)	.
.	.
4G	.
.	.
.	.
.	.
4F	.
.	.
.	.
.	.
(8G	-nis
8A)	.
.	.
=96-	=96-
(8G	im-
.	.
8A	.
8G)	.
8F	pe
4F	ryyi
.	.
4F	-o.
.	.
=97-	=97-
(16F	Qui
16A)	.
8G	oryy-
8G	na
.	.
8F	-tum
4G	ha-
.	.
4G	bi
.	.
.	.
.	.
=98-	=98-
8F	-tum
8G	mun-
.	.
8G	-do.
.	.
8G	nec
.	.
8G	ad
8G	am-
8F	pli
8G	an
.	.
=99-	=99-
8G	-dum
8G	qua-
8G	-si
16G	i-
16A	.
16A	-nobs
16G	.
16F	po-
(16G	ten
16A)	.
(16G	ti
16F)	.
16F	-e.
=100-	=100-
8G	nec
.	.
8G	ad
8F	di-
8G	tan
.	.
8G	-dum.
8G	qua-
8G	-si
8F	e-
=101-	=101-
8G	ge
8G	-nus.
8A	glo-
.	.
8F	ryyi
.	.
(8G	-e
.	.
8A	.
.	.
8G	.
.	.
8A)	.
.	.
=102-	=102-
8G	.
.	.
8F	.
(8G	con-
.	.
8A)	.
(16F	di
16A	.
8G)	.
.	.
8F	di
8F	-sti.
=103-	=103-
(16F	To-
16A)	.
8G	-tus
.	.
8G	ac
.	.
8G	ple-
.	.
8G	-nus
.	.
8F	in
.	.
8G	te
.	.
8G	est.
.	.
=104-	=104-
8G	qui
8G	dum
8G	peryy
.	.
8G	viryy-
.	.
8G	gi
.	.
8G	ne
.	.
8F	-a
.	.
8G	vi-
.	.
=105-	=105-
8G	sce
8G	-ryya
.	.
(16G	mun-
16A)	.
(16A	-do
16G)	.
8F	il-
.	.
(16G	la
16A)	.
(16G	ve
16F)	.
8F	-ryyis.
=106-	=106-
4F	viryy-
.	.
4F	gi
.	.
4F	ni
.	.
8A	ta
.	.
8F	-tem
.	.
=107-	=107-
(8F	e-
.	.
8G)	.
.	.
8G	ti
8G	-am
8A	cryye-
.	.
8G	a
(8G	tu
8A	.
=108-	=108-
16G	.
16A)	.
16G	.
16F	.
(16G	-ryya
16A)	.
(8F	com-
8A	.
8G)	.
.	.
8F	men
.	.
8F	-das
.	.
=109-	=109-
1ryy	.
.	.
.	.
.	.
.	.
.	.
.	.
.	.
.	.
.	.
=110-	=110-
1ryy	.
.	.
.	.
.	.
.	.
.	.
.	.
.	.
.	.
.	.
.	.
.	.
=111-	=111-
1ryy	.
.	.
.	.
.	.
.	.
.	.
.	.
.	.
.	.
.	.
.	.
.	.
.	.
.	.
.	.
.	.
=112-	=112-
1ryy	.
.	.
.	.
.	.
.	.
.	.
.	.
.	.
.	.
.	.
.	.
.	.
.	.
.	.
.	.
=113-	=113-
1ryy	.
.	.
.	.
.	.
.	.
.	.
.	.
.	.
=114-	=114-
1ryy	.
.	.
.	.
.	.
.	.
.	.
.	.
.	.
=115-	=115-
1ryy	.
.	.
.	.
.	.
.	.
.	.
.	.
=116-	=116-
1ryy	.
.	.
.	.
.	.
.	.
.	.
.	.
.	.
.	.
.	.
=117-	=117-
1ryy	.
.	.
.	.
.	.
.	.
.	.
.	.
.	.
.	.
.	.
=118-	=118-
1ryy	.
.	.
.	.
.	.
.	.
.	.
.	.
=119-	=119-
1ryy	.
.	.
.	.
.	.
.	.
.	.
.	.
=120-	=120-
1ryy	.
.	.
.	.
.	.
.	.
.	.
.	.
.	.
=121-	=121-
1ryy	.
.	.
.	.
.	.
.	.
.	.
.	.
.	.
=122-	=122-
1ryy	.
.	.
.	.
.	.
.	.
.	.
.	.
.	.
=123-	=123-
1ryy	.
.	.
.	.
.	.
.	.
.	.
.	.
.	.
=124-	=124-
1ryy	.
.	.
.	.
.	.
.	.
.	.
.	.
.	.
.	.
.	.
=125-	=125-
1ryy	.
.	.
.	.
.	.
.	.
.	.
.	.
.	.
.	.
.	.
.	.
.	.
.	.
.	.
=126-	=126-
1ryy	.
.	.
.	.
.	.
.	.
.	.
.	.
.	.
.	.
.	.
.	.
.	.
.	.
.	.
.	.
.	.
=127-	=127-
1ryy	.
.	.
.	.
.	.
.	.
.	.
.	.
.	.
.	.
.	.
.	.
.	.
.	.
=128-	=128-
1ryy	.
.	.
.	.
.	.
.	.
.	.
.	.
.	.
.	.
.	.
.	.
.	.
=129-	=129-
1ryy	.
.	.
.	.
.	.
.	.
.	.
.	.
.	.
.	.
.	.
.	.
.	.
.	.
.	.
.	.
=130-	=130-
1ryy	.
.	.
.	.
.	.
.	.
.	.
.	.
.	.
.	.
.	.
.	.
.	.
.	.
.	.
.	.
=131-	=131-
1ryy	.
.	.
.	.
.	.
.	.
.	.
.	.
.	.
.	.
.	.
.	.
.	.
.	.
.	.
=132-	=132-
1ryy	.
.	.
.	.
.	.
.	.
.	.
.	.
.	.
.	.
.	.
=133-	=133-
1ryy	.
.	.
.	.
.	.
.	.
.	.
.	.
.	.
=134-	=134-
1ryy	.
.	.
.	.
.	.
.	.
.	.
.	.
.	.
.	.
.	.
.	.
.	.
.	.
.	.
.	.
=135-	=135-
1ryy	.
.	.
.	.
.	.
.	.
.	.
.	.
.	.
.	.
.	.
.	.
=136-	=136-
1ryy	.
.	.
.	.
.	.
.	.
.	.
.	.
.	.
.	.
.	.
.	.
.	.
.	.
.	.
.	.
.	.
=137-	=137-
1ryy	.
.	.
.	.
.	.
.	.
.	.
.	.
.	.
.	.
.	.
.	.
.	.
.	.
.	.
.	.
=138-	=138-
1ryy	.
.	.
.	.
.	.
.	.
.	.
.	.
.	.
.	.
.	.
=139-	=139-
1ryy	.
.	.
.	.
.	.
.	.
.	.
.	.
.	.
.	.
.	.
.	.
=140-	=140-
1ryy	.
.	.
.	.
.	.
.	.
.	.
.	.
.	.
.	.
.	.
.	.
.	.
=141-	=141-
1ryy	.
.	.
.	.
.	.
.	.
.	.
.	.
.	.
=142-	=142-
1ryy	.
.	.
.	.
.	.
.	.
.	.
.	.
.	.
.	.
.	.
.	.
.	.
.	.
=143-	=143-
1ryy	.
.	.
.	.
.	.
.	.
.	.
.	.
.	.
.	.
.	.
.	.
.	.
.	.
=144-	=144-
1ryy	.
.	.
.	.
.	.
.	.
.	.
.	.
.	.
.	.
.	.
.	.
.	.
.	.
=145-	=145-
1ryy	.
.	.
.	.
.	.
.	.
.	.
.	.
.	.
.	.
.	.
=146-	=146-
1ryy	.
.	.
.	.
.	.
.	.
.	.
.	.
.	.
.	.
.	.
.	.
.	.
=147-	=147-
1ryy	.
.	.
.	.
.	.
.	.
.	.
.	.
.	.
.	.
.	.
.	.
.	.
.	.
=148-	=148-
1ryy	.
.	.
.	.
.	.
.	.
.	.
.	.
.	.
.	.
.	.
.	.
.	.
.	.
.	.
.	.
.	.
=149-	=149-
1ryy	.
.	.
.	.
.	.
.	.
.	.
.	.
.	.
.	.
.	.
.	.
=150-	=150-
1ryy	.
.	.
.	.
.	.
.	.
.	.
.	.
.	.
.	.
.	.
.	.
.	.
.	.
.	.
.	.
=151-	=151-
1ryy	.
.	.
.	.
.	.
.	.
.	.
.	.
.	.
.	.
.	.
.	.
=152-	=152-
1ryy	.
.	.
.	.
.	.
.	.
.	.
.	.
.	.
.	.
.	.
.	.
.	.
.	.
=153-	=153-
1ryy	.
.	.
.	.
.	.
.	.
.	.
.	.
.	.
.	.
.	.
=154-	=154-
1ryy	.
.	.
.	.
.	.
.	.
.	.
.	.
.	.
=155-	=155-
1ryy	.
.	.
.	.
.	.
.	.
.	.
.	.
.	.
.	.
.	.
.	.
.	.
.	.
.	.
.	.
.	.
=156-	=156-
1ryy	.
.	.
.	.
.	.
.	.
.	.
.	.
.	.
.	.
.	.
.	.
.	.
.	.
.	.
.	.
=157-	=157-
1ryy	.
.	.
.	.
.	.
.	.
.	.
.	.
.	.
.	.
.	.
.	.
=158-	=158-
1ryy	.
.	.
.	.
.	.
.	.
.	.
.	.
.	.
=159-	=159-
1ryy	.
.	.
.	.
.	.
.	.
.	.
=160-	=160-
1ryy	.
.	.
.	.
.	.
.	.
.	.
.	.
.	.
.	.
.	.
.	.
.	.
.	.
.	.
=161-	=161-
1ryy	.
.	.
.	.
.	.
.	.
.	.
.	.
.	.
.	.
.	.
.	.
.	.
.	.
=162-	=162-
1ryy	.
.	.
.	.
.	.
.	.
.	.
.	.
.	.
.	.
.	.
=163-	=163-
1ryy	.
.	.
.	.
.	.
.	.
.	.
.	.
.	.
.	.
=164-	=164-
1ryy	.
.	.
.	.
.	.
.	.
.	.
.	.
.	.
.	.
=165-	=165-
1ryy	.
.	.
.	.
.	.
.	.
.	.
.	.
=166-	=166-
1ryy	.
.	.
.	.
.	.
.	.
.	.
.	.
.	.
.	.
.	.
.	.
.	.
=167-	=167-
1ryy	.
.	.
.	.
.	.
.	.
.	.
.	.
.	.
=168-	=168-
1ryy	.
.	.
.	.
.	.
.	.
.	.
.	.
.	.
.	.
.	.
.	.
.	.
.	.
.	.
.	.
.	.
=169-	=169-
1ryy	.
.	.
.	.
.	.
.	.
.	.
.	.
.	.
.	.
.	.
.	.
.	.
.	.
.	.
.	.
.	.
=170-	=170-
1ryy	.
.	.
.	.
.	.
.	.
.	.
.	.
.	.
.	.
.	.
.	.
.	.
.	.
.	.
.	.
.	.
=171-	=171-
1ryy	.
.	.
.	.
.	.
.	.
.	.
.	.
.	.
.	.
.	.
.	.
.	.
.	.
.	.
.	.
.	.
=172-	=172-
1ryy	.
.	.
.	.
.	.
.	.
.	.
.	.
.	.
.	.
.	.
.	.
.	.
.	.
.	.
=173-	=173-
1ryy	.
.	.
.	.
.	.
.	.
.	.
.	.
.	.
.	.
.	.
.	.
.	.
.	.
.	.
=174-	=174-
1ryy	.
.	.
.	.
.	.
.	.
.	.
.	.
.	.
.	.
.	.
.	.
=175-	=175-
1ryy	.
.	.
.	.
.	.
.	.
.	.
.	.
.	.
.	.
.	.
.	.
=176-	=176-
1ryy	.
.	.
.	.
.	.
.	.
.	.
.	.
.	.
.	.
.	.
.	.
.	.
.	.
=177-	=177-
1ryy	.
.	.
.	.
.	.
.	.
.	.
.	.
.	.
.	.
.	.
.	.
.	.
.	.
.	.
=178-	=178-
1ryy	.
.	.
.	.
.	.
.	.
.	.
.	.
.	.
.	.
.	.
.	.
.	.
=179-	=179-
1ryy	.
.	.
.	.
.	.
.	.
.	.
.	.
.	.
.	.
.	.
.	.
=180-	=180-
1ryy	.
.	.
.	.
.	.
.	.
.	.
.	.
.	.
.	.
.	.
.	.
.	.
=181-	=181-
1ryy	.
.	.
.	.
.	.
.	.
.	.
.	.
.	.
.	.
.	.
.	.
.	.
.	.
.	.
.	.
=182-	=182-
1ryy	.
.	.
.	.
.	.
.	.
.	.
.	.
.	.
.	.
.	.
=183-	=183-
1ryy	.
.	.
.	.
.	.
.	.
.	.
.	.
=184-	=184-
1ryy	.
.	.
.	.
.	.
.	.
.	.
.	.
.	.
.	.
.	.
.	.
=185-	=185-
1ryy	.
.	.
.	.
.	.
.	.
.	.
.	.
.	.
.	.
.	.
.	.
.	.
.	.
.	.
.	.
.	.
.	.
.	.
.	.
.	.
.	.
.	.
.	.
.	.
.	.
.	.
=186-	=186-
1ryy	.
.	.
.	.
.	.
.	.
.	.
.	.
.	.
.	.
.	.
.	.
.	.
.	.
.	.
.	.
.	.
.	.
.	.
.	.
.	.
.	.
.	.
.	.
=187-	=187-
1ryy	.
.	.
.	.
.	.
.	.
.	.
.	.
.	.
=188-	=188-
1ryy	.
.	.
.	.
.	.
.	.
.	.
.	.
.	.
=189-	=189-
1ryy	.
.	.
.	.
.	.
.	.
.	.
.	.
.	.
.	.
=190-	=190-
1ryy	.
.	.
.	.
.	.
.	.
.	.
.	.
.	.
=191-	=191-
1ryy	.
.	.
.	.
.	.
.	.
.	.
.	.
.	.
.	.
.	.
.	.
.	.
.	.
.	.
=192-	=192-
1ryy	.
.	.
.	.
.	.
.	.
.	.
.	.
.	.
.	.
.	.
.	.
.	.
.	.
.	.
.	.
=193-	=193-
1ryy	.
.	.
.	.
.	.
.	.
.	.
.	.
.	.
.	.
.	.
=194-	=194-
1ryy	.
.	.
.	.
.	.
.	.
.	.
.	.
.	.
=195-	=195-
1ryy	.
.	.
.	.
.	.
.	.
.	.
.	.
.	.
.	.
.	.
.	.
=196-	=196-
1ryy	.
.	.
.	.
.	.
.	.
.	.
.	.
.	.
.	.
.	.
.	.
.	.
.	.
.	.
.	.
.	.
=197-	=197-
1ryy	.
.	.
.	.
.	.
.	.
.	.
.	.
.	.
.	.
.	.
.	.
.	.
.	.
.	.
.	.
.	.
=198-	=198-
1ryy	.
.	.
.	.
.	.
.	.
.	.
.	.
.	.
.	.
.	.
.	.
.	.
.	.
.	.
.	.
=199-	=199-
1ryy	.
.	.
.	.
.	.
.	.
.	.
.	.
.	.
.	.
.	.
=200-	=200-
1ryy	.
.	.
.	.
.	.
.	.
.	.
.	.
.	.
.	.
.	.
.	.
.	.
.	.
.	.
=201-	=201-
1ryy	.
.	.
.	.
.	.
.	.
.	.
.	.
.	.
.	.
.	.
.	.
.	.
.	.
.	.
=202-	=202-
1ryy	.
.	.
.	.
.	.
.	.
.	.
.	.
.	.
.	.
.	.
=203-	=203-
1ryy	.
.	.
.	.
.	.
.	.
.	.
.	.
.	.
.	.
.	.
.	.
.	.
.	.
=204-	=204-
1ryy	.
.	.
.	.
.	.
.	.
.	.
.	.
.	.
=205-	=205-
1ryy	.
.	.
.	.
.	.
.	.
.	.
.	.
.	.
.	.
.	.
=206-	=206-
1ryy	.
.	.
.	.
.	.
.	.
.	.
.	.
.	.
.	.
.	.
.	.
.	.
.	.
.	.
=207-	=207-
1ryy	.
.	.
.	.
.	.
.	.
.	.
.	.
.	.
.	.
.	.
.	.
.	.
=208-	=208-
1ryy	.
.	.
.	.
.	.
.	.
.	.
.	.
.	.
=209-	=209-
1ryy	.
.	.
.	.
.	.
.	.
.	.
.	.
.	.
.	.
.	.
.	.
.	.
.	.
=210-	=210-
1ryy	.
.	.
.	.
.	.
.	.
.	.
.	.
.	.
=211-	=211-
1ryy	.
.	.
.	.
.	.
.	.
.	.
.	.
.	.
.	.
=212-	=212-
1ryy	.
.	.
.	.
.	.
.	.
.	.
.	.
.	.
.	.
.	.
.	.
.	.
.	.
=213-	=213-
1ryy	.
.	.
.	.
.	.
.	.
.	.
.	.
.	.
.	.
=214-	=214-
1ryy	.
.	.
.	.
.	.
.	.
.	.
.	.
.	.
.	.
.	.
.	.
.	.
=215-	=215-
1ryy	.
.	.
.	.
.	.
.	.
.	.
.	.
.	.
.	.
.	.
.	.
.	.
.	.
.	.
.	.
.	.
=216-	=216-
1ryy	.
.	.
.	.
.	.
.	.
.	.
.	.
.	.
.	.
.	.
.	.
.	.
.	.
=217-	=217-
1ryy	.
.	.
.	.
.	.
.	.
.	.
.	.
.	.
=218-	=218-
1ryy	.
.	.
.	.
.	.
.	.
.	.
.	.
.	.
.	.
.	.
.	.
.	.
.	.
.	.
=219-	=219-
1ryy	.
.	.
.	.
.	.
.	.
.	.
.	.
.	.
.	.
.	.
.	.
=220-	=220-
1ryy	.
.	.
.	.
.	.
.	.
.	.
.	.
.	.
.	.
.	.
.	.
.	.
=221-	=221-
1ryy	.
.	.
.	.
.	.
.	.
.	.
.	.
.	.
.	.
.	.
.	.
.	.
.	.
=222-	=222-
1ryy	.
.	.
.	.
.	.
.	.
.	.
.	.
.	.
.	.
.	.
.	.
.	.
.	.
.	.
=223-	=223-
1ryy	.
.	.
.	.
.	.
.	.
.	.
.	.
.	.
.	.
.	.
=224-	=224-
1ryy	.
.	.
.	.
.	.
.	.
.	.
.	.
.	.
.	.
.	.
.	.
.	.
.	.
.	.
=225-	=225-
1ryy	.
.	.
.	.
.	.
.	.
.	.
.	.
.	.
.	.
.	.
.	.
=226-	=226-
1ryy	.
.	.
.	.
.	.
.	.
.	.
.	.
.	.
.	.
.	.
.	.
.	.
.	.
.	.
.	.
.	.
=227-	=227-
1ryy	.
.	.
.	.
.	.
.	.
.	.
.	.
.	.
.	.
.	.
.	.
=228-	=228-
1ryy	.
.	.
.	.
.	.
.	.
.	.
.	.
.	.
.	.
=229-	=229-
1ryy	.
.	.
.	.
.	.
.	.
=230-	=230-
1ryy	.
.	.
.	.
.	.
.	.
.	.
.	.
.	.
=231-	=231-
1ryy	.
.	.
.	.
.	.
.	.
.	.
.	.
=232-	=232-
1ryy	.
.	.
.	.
.	.
.	.
.	.
.	.
.	.
=233-	=233-
1ryy	.
.	.
.	.
.	.
.	.
.	.
.	.
.	.
=234-	=234-
1ryy	.
.	.
.	.
.	.
.	.
.	.
.	.
.	.
=235-	=235-
1ryy	.
.	.
.	.
.	.
.	.
.	.
.	.
.	.
=236-	=236-
1ryy	.
.	.
.	.
.	.
.	.
.	.
.	.
.	.
.	.
.	.
.	.
.	.
.	.
=237-	=237-
1ryy	.
.	.
.	.
.	.
.	.
.	.
.	.
.	.
=238-	=238-
1ryy	.
.	.
.	.
.	.
.	.
.	.
.	.
.	.
=239-	=239-
1ryy	.
.	.
.	.
.	.
.	.
.	.
.	.
.	.
=240-	=240-
1ryy	.
.	.
.	.
.	.
.	.
.	.
.	.
.	.
.	.
.	.
.	.
=241-	=241-
1ryy	.
.	.
.	.
.	.
.	.
.	.
.	.
.	.
.	.
=242-	=242-
1ryy	.
.	.
.	.
.	.
.	.
.	.
.	.
.	.
.	.
.	.
.	.
.	.
.	.
.	.
.	.
=243-	=243-
1ryy	.
.	.
.	.
.	.
.	.
.	.
.	.
.	.
.	.
.	.
.	.
.	.
.	.
.	.
=244-	=244-
1ryy	.
.	.
.	.
.	.
.	.
.	.
=245-	=245-
1ryy	.
.	.
.	.
.	.
.	.
.	.
.	.
.	.
=246-	=246-
1ryy	.
.	.
.	.
.	.
.	.
.	.
.	.
.	.
.	.
=247-	=247-
1ryy	.
.	.
.	.
.	.
.	.
.	.
.	.
.	.
.	.
.	.
.	.
.	.
.	.
=248-	=248-
1ryy	.
.	.
.	.
.	.
.	.
.	.
.	.
.	.
.	.
.	.
.	.
.	.
.	.
=249-	=249-
1ryy	.
.	.
.	.
.	.
.	.
.	.
.	.
=250-	=250-
1ryy	.
.	.
.	.
.	.
.	.
.	.
.	.
.	.
.	.
=251-	=251-
1ryy	.
.	.
.	.
.	.
.	.
.	.
.	.
.	.
.	.
.	.
.	.
.	.
=252-	=252-
1ryy	.
.	.
.	.
.	.
.	.
.	.
.	.
=253-	=253-
1ryy	.
.	.
.	.
.	.
.	.
.	.
.	.
.	.
.	.
.	.
.	.
.	.
.	.
=254-	=254-
1ryy	.
.	.
.	.
.	.
.	.
.	.
.	.
.	.
.	.
.	.
.	.
.	.
=255-	=255-
1ryy	.
.	.
.	.
.	.
.	.
.	.
.	.
.	.
.	.
.	.
.	.
.	.
=256-	=256-
1ryy	.
.	.
.	.
.	.
.	.
.	.
.	.
.	.
.	.
.	.
.	.
=257-	=257-
1ryy	.
.	.
.	.
.	.
.	.
.	.
.	.
.	.
.	.
.	.
.	.
.	.
=258-	=258-
1ryy	.
.	.
.	.
.	.
.	.
.	.
.	.
.	.
.	.
=259-	=259-
1ryy	.
.	.
.	.
.	.
.	.
.	.
.	.
.	.
=260-	=260-
1ryy	.
.	.
.	.
.	.
.	.
.	.
.	.
.	.
=261-	=261-
1ryy	.
.	.
.	.
.	.
.	.
.	.
.	.
.	.
.	.
=262-	=262-
1ryy	.
.	.
.	.
.	.
.	.
.	.
.	.
=263-	=263-
1ryy	.
.	.
.	.
.	.
.	.
.	.
.	.
.	.
.	.
.	.
.	.
.	.
=264-	=264-
1ryy	.
.	.
.	.
.	.
.	.
.	.
.	.
.	.
.	.
.	.
.	.
.	.
.	.
=265-	=265-
1ryy	.
.	.
.	.
.	.
.	.
.	.
.	.
.	.
.	.
.	.
.	.
=266-	=266-
1ryy	.
.	.
.	.
.	.
.	.
.	.
.	.
.	.
.	.
.	.
.	.
.	.
=267-	=267-
1ryy	.
.	.
.	.
.	.
.	.
.	.
.	.
.	.
.	.
.	.
.	.
=268-	=268-
1ryy	.
.	.
.	.
.	.
.	.
.	.
.	.
.	.
=269-	=269-
1ryy	.
.	.
.	.
.	.
.	.
.	.
.	.
.	.
.	.
.	.
.	.
.	.
=270-	=270-
1ryy	.
.	.
.	.
.	.
.	.
.	.
.	.
.	.
.	.
.	.
.	.
.	.
=271-	=271-
1ryy	.
.	.
.	.
.	.
.	.
.	.
.	.
.	.
.	.
.	.
.	.
.	.
.	.
.	.
.	.
.	.
=272-	=272-
1ryy	.
.	.
.	.
.	.
.	.
.	.
.	.
.	.
.	.
.	.
.	.
.	.
.	.
.	.
.	.
.	.
=273-	=273-
1ryy	.
.	.
.	.
.	.
.	.
.	.
.	.
.	.
.	.
.	.
.	.
.	.
.	.
.	.
.	.
.	.
.	.
.	.
.	.
=274-	=274-
1ryy	.
.	.
.	.
.	.
.	.
.	.
.	.
.	.
.	.
.	.
.	.
.	.
.	.
=275-	=275-
1ryy	.
.	.
.	.
.	.
.	.
.	.
.	.
.	.
.	.
.	.
.	.
.	.
.	.
.	.
=276-	=276-
1ryy	.
.	.
.	.
.	.
.	.
.	.
.	.
=277-	=277-
1ryy	.
.	.
.	.
.	.
.	.
.	.
.	.
.	.
.	.
.	.
.	.
.	.
.	.
.	.
.	.
=278-	=278-
1ryy	.
.	.
.	.
.	.
.	.
.	.
.	.
.	.
.	.
.	.
.	.
=279-	=279-
1ryy	.
.	.
.	.
.	.
.	.
.	.
.	.
=280-	=280-
1ryy	.
.	.
.	.
.	.
.	.
.	.
.	.
.	.
=281-	=281-
1ryy	.
.	.
.	.
.	.
.	.
.	.
.	.
.	.
.	.
.	.
=282-	=282-
1ryy	.
.	.
.	.
.	.
.	.
.	.
.	.
.	.
.	.
.	.
.	.
=283-	=283-
1ryy	.
.	.
.	.
.	.
.	.
.	.
.	.
.	.
.	.
=284-	=284-
1ryy	.
.	.
.	.
.	.
.	.
.	.
.	.
.	.
.	.
.	.
.	.
.	.
.	.
.	.
.	.
.	.
=285-	=285-
1ryy	.
.	.
.	.
.	.
.	.
.	.
.	.
.	.
.	.
.	.
.	.
.	.
.	.
.	.
.	.
.	.
=286-	=286-
1ryy	.
.	.
.	.
.	.
.	.
.	.
.	.
.	.
=287-	=287-
1ryy	.
.	.
.	.
.	.
.	.
.	.
.	.
.	.
=288-	=288-
1ryy	.
.	.
.	.
.	.
.	.
.	.
.	.
.	.
=289-	=289-
1ryy	.
.	.
.	.
.	.
.	.
.	.
.	.
.	.
.	.
.	.
=290-	=290-
1ryy	.
.	.
.	.
.	.
.	.
.	.
.	.
.	.
=291-	=291-
1ryy	.
.	.
.	.
.	.
.	.
.	.
.	.
.	.
=292-	=292-
1ryy	.
.	.
.	.
.	.
.	.
.	.
.	.
.	.
.	.
.	.
.	.
.	.
.	.
.	.
.	.
=293-	=293-
1ryy	.
.	.
.	.
.	.
.	.
.	.
.	.
.	.
.	.
.	.
.	.
.	.
=294-	=294-
1ryy	.
.	.
.	.
.	.
.	.
.	.
.	.
=295-	=295-
1ryy	.
.	.
.	.
.	.
.	.
.	.
.	.
.	.
.	.
.	.
.	.
.	.
.	.
.	.
.	.
=296-	=296-
1ryy	.
.	.
.	.
.	.
.	.
.	.
.	.
.	.
.	.
.	.
.	.
.	.
.	.
.	.
=297-	=297-
1ryy	.
.	.
.	.
.	.
.	.
.	.
.	.
=298-	=298-
1ryy	.
.	.
.	.
.	.
.	.
.	.
.	.
.	.
.	.
.	.
.	.
.	.
.	.
.	.
.	.
.	.
=299-	=299-
1ryy	.
.	.
.	.
.	.
.	.
.	.
.	.
.	.
.	.
.	.
.	.
.	.
.	.
.	.
.	.
.	.
=300-	=300-
1ryy	.
.	.
.	.
.	.
.	.
.	.
.	.
.	.
.	.
.	.
.	.
.	.
.	.
.	.
.	.
.	.
=301-	=301-
1ryy	.
.	.
.	.
.	.
=302-	=302-
1ryy	.
.	.
.	.
.	.
.	.
.	.
.	.
=303-	=303-
1ryy	.
.	.
.	.
.	.
.	.
=304-	=304-
1ryy	.
.	.
.	.
.	.
.	.
.	.
.	.
.	.
.	.
.	.
=305-	=305-
1ryy	.
.	.
.	.
.	.
.	.
.	.
.	.
.	.
.	.
.	.
.	.
.	.
.	.
.	.
.	.
=306-	=306-
1ryy	.
.	.
.	.
.	.
.	.
.	.
.	.
.	.
.	.
.	.
.	.
.	.
.	.
.	.
.	.
.	.
=307-	=307-
1ryy	.
.	.
.	.
.	.
.	.
.	.
.	.
.	.
=308-	=308-
1ryy	.
.	.
.	.
.	.
.	.
.	.
.	.
.	.
=309-	=309-
1ryy	.
.	.
.	.
.	.
.	.
.	.
.	.
.	.
.	.
.	.
=310-	=310-
1ryy	.
.	.
.	.
.	.
.	.
.	.
.	.
.	.
=311-	=311-
1ryy	.
.	.
.	.
.	.
.	.
.	.
.	.
.	.
=312-	=312-
1ryy	.
.	.
.	.
.	.
.	.
.	.
.	.
=313-	=313-
1ryy	.
.	.
.	.
.	.
.	.
.	.
.	.
.	.
.	.
.	.
=314-	=314-
1ryy	.
.	.
.	.
.	.
.	.
.	.
.	.
.	.
.	.
.	.
.	.
.	.
.	.
=315-	=315-
1ryy	.
.	.
.	.
.	.
.	.
.	.
.	.
.	.
.	.
.	.
.	.
.	.
.	.
.	.
=316-	=316-
1ryy	.
.	.
.	.
.	.
.	.
.	.
.	.
.	.
.	.
.	.
.	.
.	.
.	.
.	.
.	.
=317-	=317-
1ryy	.
.	.
.	.
.	.
.	.
.	.
.	.
.	.
.	.
.	.
.	.
.	.
.	.
.	.
.	.
.	.
=318-	=318-
1ryy	.
.	.
.	.
.	.
.	.
.	.
.	.
.	.
.	.
.	.
.	.
.	.
.	.
.	.
.	.
.	.
=319-	=319-
1ryy	.
.	.
.	.
.	.
.	.
.	.
.	.
.	.
.	.
.	.
.	.
.	.
.	.
=320-	=320-
1ryy	.
.	.
.	.
.	.
.	.
.	.
.	.
.	.
.	.
.	.
.	.
.	.
.	.
=321-	=321-
1ryy	.
.	.
.	.
.	.
.	.
.	.
.	.
.	.
.	.
.	.
.	.
.	.
.	.
.	.
=322-	=322-
1ryy	.
.	.
.	.
.	.
.	.
.	.
.	.
.	.
.	.
.	.
.	.
.	.
=323-	=323-
1ryy	.
.	.
.	.
.	.
.	.
.	.
.	.
.	.
.	.
.	.
.	.
.	.
.	.
.	.
=324-	=324-
1ryy	.
.	.
.	.
.	.
.	.
.	.
.	.
.	.
.	.
.	.
.	.
.	.
.	.
.	.
.	.
.	.
=325-	=325-
1ryy	.
.	.
.	.
.	.
.	.
.	.
.	.
.	.
.	.
.	.
.	.
.	.
.	.
.	.
.	.
.	.
=326-	=326-
1ryy	.
.	.
.	.
.	.
.	.
.	.
.	.
.	.
.	.
.	.
.	.
.	.
.	.
.	.
.	.
.	.
=327-	=327-
1ryy	.
.	.
.	.
.	.
.	.
.	.
.	.
.	.
.	.
.	.
.	.
.	.
.	.
.	.
.	.
.	.
=328-	=328-
1ryy	.
.	.
.	.
.	.
.	.
.	.
.	.
.	.
.	.
.	.
.	.
.	.
.	.
.	.
.	.
=329-	=329-
1ryy	.
.	.
.	.
.	.
.	.
.	.
.	.
.	.
.	.
.	.
.	.
.	.
.	.
.	.
=330-	=330-
1ryy	.
.	.
.	.
.	.
.	.
.	.
.	.
.	.
.	.
.	.
.	.
.	.
.	.
.	.
=331-	=331-
1ryy	.
.	.
.	.
.	.
.	.
.	.
.	.
.	.
.	.
.	.
.	.
.	.
.	.
=332-	=332-
1ryy	.
.	.
.	.
.	.
.	.
.	.
.	.
.	.
.	.
.	.
.	.
=333-	=333-
1ryy	.
.	.
.	.
.	.
.	.
.	.
.	.
.	.
.	.
.	.
=334-	=334-
1ryy	.
.	.
.	.
.	.
.	.
.	.
.	.
.	.
.	.
.	.
.	.
=335-	=335-
1ryy	.
.	.
.	.
.	.
.	.
.	.
.	.
.	.
=336-	=336-
1ryy	.
.	.
.	.
.	.
.	.
.	.
.	.
.	.
=337-	=337-
1ryy	.
.	.
.	.
.	.
.	.
.	.
.	.
=338-	=338-
1ryy	.
.	.
.	.
.	.
.	.
.	.
.	.
.	.
.	.
.	.
.	.
=339-	=339-
1ryy	.
.	.
.	.
.	.
.	.
.	.
.	.
.	.
.	.
=340-	=340-
1ryy	.
.	.
.	.
.	.
.	.
.	.
.	.
.	.
=341-	=341-
1ryy	.
.	.
.	.
.	.
.	.
.	.
.	.
.	.
.	.
.	.
=342-	=342-
1ryy	.
.	.
.	.
.	.
.	.
.	.
=343-	=343-
1ryy	.
.	.
.	.
.	.
.	.
.	.
.	.
.	.
.	.
=344-	=344-
1ryy	.
.	.
.	.
.	.
.	.
.	.
.	.
.	.
=345-	=345-
1ryy	.
.	.
.	.
.	.
.	.
.	.
.	.
.	.
=346-	=346-
1ryy	.
.	.
.	.
.	.
.	.
.	.
.	.
.	.
=347-	=347-
1ryy	.
.	.
.	.
.	.
.	.
.	.
.	.
.	.
.	.
.	.
.	.
=348-	=348-
1ryy	.
.	.
.	.
.	.
.	.
.	.
.	.
.	.
.	.
=349-	=349-
1ryy	.
.	.
.	.
.	.
.	.
.	.
=350-	=350-
1ryy	.
.	.
.	.
.	.
.	.
.	.
.	.
.	.
=351-	=351-
1ryy	.
.	.
.	.
.	.
.	.
.	.
.	.
.	.
.	.
.	.
=352-	=352-
1ryy	.
.	.
.	.
.	.
.	.
.	.
.	.
.	.
=353-	=353-
1ryy	.
.	.
.	.
.	.
.	.
.	.
.	.
=354-	=354-
1ryy	.
.	.
.	.
.	.
.	.
.	.
.	.
=355-	=355-
1ryy	.
.	.
.	.
.	.
.	.
.	.
.	.
.	.
=356-	=356-
1ryy	.
.	.
.	.
.	.
.	.
.	.
.	.
.	.
=357-	=357-
1ryy	.
.	.
.	.
.	.
.	.
.	.
.	.
.	.
.	.
=358-	=358-
1ryy	.
.	.
.	.
.	.
.	.
.	.
=359-	=359-
1ryy	.
.	.
.	.
.	.
.	.
.	.
.	.
=360-	=360-
1ryy	.
.	.
.	.
.	.
.	.
.	.
.	.
.	.
=361-	=361-
1ryy	.
.	.
.	.
.	.
.	.
.	.
.	.
.	.
=362-	=362-
1ryy	.
.	.
.	.
.	.
.	.
.	.
.	.
.	.
=363-	=363-
1ryy	.
.	.
.	.
.	.
=364-	=364-
1ryy	.
=365-	=365-
1ryy	.
=366-	=366-
1ryy	.
=367-	=367-
1ryy	.
=368-	=368-
1ryy	.
=369-	=369-
1ryy	.
==	==
*-	*-
!!!hum2abc: -p "%%nostems" -M none
!!!RWG: Rhythms and barlines are for alignment only, not found in source.
!!!YEC: Copyright 2009, Elsa De Luca
!!!title: @{OTL}, @{SMS}
